<?xml version="1.0" encoding="UTF-8"?>
<map version="1.10" tiledversion="1.11.2" orientation="orthogonal" renderorder="right-down" width="50" height="50" tilewidth="32" tileheight="32" infinite="0" nextlayerid="2" nextobjectid="1">
 <editorsettings>
  <export target="maptestmaybe" format="csv"/>
 </editorsettings>
 <tileset firstgid="1" source="maybetest.tsx"/>
 <layer id="1" name="Tile Layer 1" width="50" height="50">
  <data encoding="csv">
52,52,52,52,52,52,52,52,52,52,52,52,52,52,52,52,52,52,52,52,52,52,52,52,52,52,52,52,52,52,52,52,52,52,52,52,52,52,52,52,52,52,52,52,52,52,52,52,52,52,
52,52,52,52,52,52,52,52,52,52,52,52,52,52,52,52,52,52,52,52,52,52,52,52,52,52,52,52,52,52,52,52,52,52,52,52,52,52,52,52,52,52,52,52,52,52,52,52,52,52,
52,52,52,52,52,52,52,52,52,52,52,52,52,52,52,52,52,52,52,52,52,52,52,52,52,52,52,52,52,52,52,52,52,52,52,52,52,52,52,52,52,52,52,52,52,52,52,52,52,52,
52,52,52,52,52,52,52,52,52,52,52,52,52,52,52,52,52,52,52,52,52,52,52,52,52,52,52,52,52,52,52,52,52,52,52,52,52,52,52,52,52,52,52,52,52,52,52,52,52,52,
52,52,52,52,52,52,52,52,52,52,52,52,52,52,52,52,52,52,52,52,52,52,52,52,52,52,52,52,52,52,52,52,52,52,52,52,52,52,52,52,52,52,52,52,52,52,52,52,52,52,
52,52,52,52,52,52,52,26,52,26,52,52,26,26,52,52,52,26,52,52,52,26,52,52,52,26,52,26,52,52,26,26,52,52,52,52,52,26,52,52,26,52,26,26,52,52,52,52,52,52,
52,52,52,52,52,52,52,52,52,52,52,52,52,52,52,52,52,52,52,52,52,52,52,52,52,52,52,52,52,52,52,52,52,52,52,52,52,52,52,52,52,52,52,52,52,52,52,52,52,52,
52,52,52,52,52,52,52,52,26,52,26,52,26,26,26,26,26,26,26,52,26,52,26,52,26,26,26,26,26,26,26,26,26,52,52,26,52,26,52,52,26,52,52,52,26,52,52,52,52,52,
52,52,52,52,52,52,52,52,52,52,52,52,52,52,52,52,52,52,52,52,52,52,52,52,52,52,52,52,52,52,52,52,52,52,52,52,52,52,52,52,52,52,52,52,52,52,52,52,52,52,
52,52,52,52,52,52,26,52,26,26,52,52,26,26,26,26,26,26,26,26,26,26,26,26,26,26,26,26,26,26,26,26,26,26,26,26,26,26,52,26,52,52,26,52,26,26,52,52,52,52,
52,52,52,52,52,52,52,52,52,52,52,52,50,50,50,11,11,11,11,11,11,11,11,11,11,11,11,11,11,11,11,50,50,50,50,50,50,50,52,52,52,52,52,52,52,52,52,52,52,52,
26,26,26,26,26,26,26,26,26,26,26,26,50,50,50,11,11,11,11,11,11,11,11,11,11,11,11,11,11,11,11,25,25,50,50,50,50,50,26,26,26,26,26,26,26,26,26,26,26,26,
52,52,52,52,52,52,52,52,52,52,52,52,50,18,12,12,12,19,11,11,11,11,11,11,11,11,11,11,11,11,11,11,11,50,50,50,50,50,52,52,52,52,52,52,52,52,52,52,52,52,
26,26,26,26,26,26,26,26,26,26,26,26,50,14,24,24,24,15,11,11,11,11,11,11,11,11,11,11,11,11,11,11,11,11,11,11,25,50,26,26,26,26,26,26,26,26,26,26,26,26,
12,12,12,12,12,12,12,12,12,12,12,12,12,24,24,24,24,15,11,11,11,11,11,11,25,25,52,11,11,11,11,11,11,11,11,11,11,11,52,52,52,52,52,52,52,52,52,52,52,52,
24,24,24,24,24,24,24,24,24,24,24,24,24,24,24,24,24,15,11,11,11,11,11,11,11,11,26,11,11,11,18,12,12,19,11,11,11,11,26,26,26,26,26,26,26,26,26,26,26,26,
24,24,24,24,24,24,24,24,24,24,24,24,24,24,24,24,24,15,11,11,11,11,11,25,11,11,11,11,11,11,14,24,24,15,11,11,11,11,52,52,52,52,52,52,52,52,52,52,52,52,
24,24,24,24,24,24,24,24,24,24,24,24,24,24,24,24,24,15,11,11,11,11,11,11,11,11,11,11,11,11,14,24,24,15,11,11,11,11,26,26,26,26,26,26,26,26,26,26,26,26,
24,24,24,24,24,24,24,24,24,24,24,24,24,13,13,13,13,17,11,11,11,11,11,11,11,11,11,11,11,11,16,13,13,17,50,11,11,11,52,52,52,52,52,52,52,52,52,52,52,52,
24,24,24,24,24,24,24,24,24,24,24,24,15,11,11,11,11,11,11,11,11,11,28,29,30,31,11,11,11,11,11,11,11,50,50,11,11,11,26,26,26,26,26,26,26,26,26,26,26,26,
24,24,24,24,24,24,24,24,24,24,24,24,15,11,11,11,11,11,11,11,11,11,32,33,34,35,11,11,11,11,11,11,11,11,11,11,11,11,52,52,52,52,52,52,52,52,52,52,52,52,
24,24,24,24,24,24,24,24,24,24,24,24,15,11,11,11,11,11,11,11,11,50,36,37,38,39,50,50,11,11,11,11,11,11,11,11,11,11,26,26,26,26,26,26,26,26,26,26,26,26,
24,24,24,24,24,24,24,24,24,24,24,24,15,11,11,11,11,11,11,11,11,11,2,2,11,11,11,11,11,11,11,11,11,11,11,11,11,11,52,52,52,52,52,52,52,52,52,52,52,52,
24,24,24,24,24,24,24,24,24,24,24,24,15,11,11,11,11,11,11,11,11,11,2,2,11,11,11,11,11,11,11,11,11,11,11,11,11,11,26,26,26,26,26,26,26,26,26,26,26,26,
24,24,24,24,24,24,24,24,24,24,24,24,15,11,11,11,25,11,25,11,11,11,2,2,11,11,11,11,11,11,11,11,11,11,25,25,11,11,52,52,52,52,52,52,52,52,52,52,52,52,
24,24,24,24,24,24,24,24,24,24,24,24,15,11,11,11,11,25,11,11,11,11,2,2,11,11,11,11,11,11,11,11,11,11,25,25,11,11,26,26,26,26,26,26,26,26,26,26,26,26,
24,24,24,24,24,24,24,24,24,24,24,24,15,11,11,11,11,11,11,11,11,11,2,2,11,11,11,11,11,11,11,11,11,11,11,11,11,11,52,52,52,52,52,52,52,52,52,52,52,52,
24,24,24,24,24,24,24,24,24,24,24,24,15,11,11,11,11,11,11,11,11,11,2,2,11,11,11,11,11,11,11,11,52,11,52,11,11,11,26,26,26,26,26,26,26,26,26,26,26,26,
24,24,24,24,24,24,24,24,24,24,24,24,15,11,11,11,11,11,11,11,11,11,2,2,11,11,11,11,11,11,11,11,26,11,26,11,11,11,52,52,52,52,52,52,52,52,52,52,52,52,
24,24,24,24,24,24,24,24,24,24,24,24,15,11,11,11,11,11,11,11,11,11,2,2,11,11,40,41,42,11,11,11,11,11,11,11,11,11,26,26,26,26,26,26,26,26,26,26,26,26,
24,24,24,24,24,24,24,24,24,24,24,24,15,11,11,11,11,11,11,11,11,11,2,2,11,11,43,44,45,11,11,11,11,11,11,11,11,11,52,52,52,52,52,52,52,52,52,52,52,52,
24,24,24,24,24,24,24,24,24,24,24,24,15,11,11,11,11,11,11,11,11,11,2,2,11,50,46,47,48,49,11,11,11,11,11,11,11,11,26,26,26,26,26,26,26,26,26,26,26,26,
24,24,24,24,24,24,24,24,24,24,24,24,15,11,11,11,11,11,11,11,11,11,2,6,1,1,1,1,1,3,11,11,11,11,11,11,11,11,52,52,52,52,52,52,52,52,52,52,52,52,
24,24,24,24,24,24,24,24,24,24,24,24,15,11,11,11,11,11,11,11,11,11,6,1,1,1,1,1,3,2,11,11,11,11,11,11,11,11,26,26,26,26,26,26,26,26,26,26,26,26,
24,24,24,24,24,24,24,24,24,24,24,24,15,11,11,11,11,11,11,11,11,11,11,11,11,11,11,11,2,2,11,11,11,11,11,11,11,11,52,52,52,52,52,52,52,52,52,52,52,52,
13,13,13,13,13,13,13,13,13,13,13,13,17,11,11,11,11,11,11,11,11,11,11,11,11,11,11,11,2,2,11,11,11,11,11,11,11,11,26,26,26,26,26,26,26,26,26,26,26,26,
52,52,52,52,52,52,52,52,52,52,52,52,52,52,52,11,11,11,11,11,11,11,11,11,11,11,11,11,2,2,11,11,11,11,11,52,52,52,52,52,52,52,52,52,52,52,52,52,52,52,
26,26,26,26,26,26,26,26,26,26,26,26,26,26,26,11,11,11,11,11,11,11,11,11,11,11,11,11,2,2,11,11,11,11,11,26,26,26,26,26,26,26,26,26,26,26,26,26,26,26,
52,52,52,52,52,52,52,52,52,52,52,52,52,52,52,52,52,52,11,11,11,11,11,11,11,11,11,11,2,2,11,11,11,52,52,52,52,52,52,52,52,52,52,52,52,52,52,52,52,52,
26,26,26,26,26,26,26,26,26,26,26,26,26,26,26,26,26,26,11,11,11,11,11,11,11,11,11,11,2,2,11,11,11,26,26,26,26,26,26,26,26,26,26,26,26,26,26,26,26,26,
52,52,52,52,52,52,52,52,52,52,52,52,52,52,52,52,52,52,52,52,52,52,52,52,52,52,52,52,2,2,52,52,52,52,52,52,52,52,52,52,52,52,52,52,52,52,52,52,52,52,
52,52,52,52,52,52,52,52,52,52,52,52,26,26,26,26,26,26,26,26,26,26,26,26,26,26,26,26,51,51,26,26,26,26,26,26,26,26,52,52,52,52,52,52,52,52,52,52,52,52,
52,52,52,52,52,52,52,52,52,52,52,52,52,52,52,52,52,52,52,52,52,52,52,52,52,52,52,52,52,52,52,52,52,52,52,52,52,52,52,52,52,52,52,52,52,52,52,52,52,52,
52,52,52,52,52,52,52,52,52,52,52,52,26,26,26,26,26,26,26,26,26,26,26,26,26,26,26,26,26,26,26,26,26,26,26,26,26,26,52,52,52,52,52,52,52,52,52,52,52,52,
52,52,52,52,52,52,52,52,52,52,52,52,52,52,52,52,52,52,52,52,52,52,52,52,52,52,52,52,52,52,52,52,52,52,52,52,52,52,52,52,52,52,52,52,52,52,52,52,52,52,
52,52,52,52,52,52,52,52,52,52,52,52,52,52,26,52,52,52,26,52,26,52,26,52,52,26,52,52,52,26,52,26,26,26,26,26,52,52,52,52,52,52,52,52,52,52,52,52,52,52,
52,52,52,52,52,52,52,52,52,52,52,52,52,52,52,52,52,52,52,52,52,52,52,52,52,52,52,52,52,52,52,52,52,52,52,52,52,52,52,52,52,52,52,52,52,52,52,52,52,52,
52,52,52,52,52,52,52,52,52,52,52,52,52,52,52,52,52,52,52,52,52,52,52,52,52,52,52,52,52,52,52,52,52,52,52,52,52,52,52,52,52,52,52,52,52,52,52,52,52,52,
52,52,52,52,52,52,52,52,52,52,52,52,52,52,52,52,52,52,52,52,52,52,52,52,52,52,52,52,52,52,52,52,52,52,52,52,52,52,52,52,52,52,52,52,52,52,52,52,52,52,
52,52,52,52,52,52,52,52,52,52,52,52,52,52,52,52,52,52,52,52,52,52,52,52,52,52,52,52,52,52,52,52,52,52,52,52,52,52,52,52,52,52,52,52,52,52,52,52,52,52
</data>
 </layer>
</map>
