<?xml version="1.0" encoding="UTF-8"?>
<map version="1.10" tiledversion="1.11.2" orientation="orthogonal" renderorder="right-down" width="50" height="130" tilewidth="32" tileheight="32" infinite="0" nextlayerid="2" nextobjectid="1">
 <tileset firstgid="1" source="tileset.tsx"/>
 <layer id="1" name="Tile Layer 1" width="50" height="130">
  <data encoding="csv">
84,84,84,84,84,84,84,84,84,84,84,84,84,84,84,84,84,84,84,84,84,84,84,84,84,84,84,84,84,84,84,84,84,84,84,84,84,84,84,84,84,84,84,84,84,84,84,84,84,84,
84,84,84,84,84,84,84,84,84,84,84,84,84,84,84,84,84,84,84,84,84,84,84,84,84,84,84,84,84,84,84,84,84,84,84,84,84,84,84,84,84,84,84,84,84,84,84,84,84,84,
84,84,84,84,84,84,84,84,84,84,84,84,84,84,84,84,84,84,84,84,84,84,84,84,84,84,84,84,84,84,84,84,84,84,84,84,84,84,84,84,84,84,84,84,84,84,84,84,84,84,
84,84,84,84,84,84,84,84,84,84,84,84,84,84,84,84,84,84,84,84,84,84,84,84,84,84,84,84,84,84,84,84,84,84,84,84,84,84,84,84,84,84,84,84,84,84,84,84,84,84,
84,84,84,84,84,84,84,84,84,84,84,84,84,84,84,84,84,84,84,84,84,84,84,84,84,84,84,84,84,84,84,84,84,84,84,84,84,84,84,84,84,84,84,84,84,84,84,84,84,84,
84,84,84,84,84,84,84,84,84,84,84,84,84,84,84,84,84,84,84,84,84,84,84,84,84,84,84,84,84,84,84,84,84,84,84,84,84,84,84,84,84,84,84,84,84,84,84,84,84,84,
84,84,84,84,84,84,84,84,84,84,84,84,84,84,84,84,84,84,84,84,84,84,84,84,84,84,84,84,84,84,84,84,84,84,84,84,84,84,84,84,84,84,84,84,84,84,84,84,84,84,
84,84,84,84,84,84,84,84,84,84,84,84,84,84,84,84,84,84,84,84,84,84,84,84,84,84,84,84,84,84,84,84,84,84,84,84,84,84,84,84,84,84,84,84,84,84,84,84,84,84,
84,84,84,84,84,84,84,84,84,84,84,84,84,84,84,84,84,84,84,84,84,84,84,84,84,84,84,84,84,84,84,84,84,84,84,84,84,84,84,84,84,84,84,84,84,84,84,84,84,84,
84,84,84,84,84,84,84,84,84,84,84,84,84,84,84,84,84,84,84,84,84,84,84,84,84,84,84,84,84,84,84,84,84,84,84,84,84,84,84,84,84,84,84,84,84,84,84,84,84,84,
84,84,84,84,84,84,84,84,84,84,84,84,84,84,84,84,84,84,84,84,84,84,84,84,84,84,84,75,84,84,84,84,84,84,84,84,84,84,84,84,84,84,84,84,84,84,84,84,84,84,
84,84,84,84,84,84,84,84,84,84,84,84,84,84,84,84,84,84,84,84,84,84,84,84,84,84,84,75,84,84,84,84,84,84,84,84,84,84,84,84,84,84,84,84,84,84,84,84,84,84,
84,84,84,84,84,84,84,84,84,84,84,84,84,84,84,84,84,84,84,84,80,80,80,84,84,84,84,74,84,80,84,84,84,84,84,84,84,84,84,84,84,84,84,84,84,84,84,84,84,84,
84,84,84,84,84,84,84,84,84,84,84,84,84,84,84,84,84,84,84,84,80,80,84,84,84,84,84,84,84,84,84,84,84,84,84,84,84,84,84,84,84,84,84,84,84,84,84,84,84,84,
84,84,84,84,84,84,84,84,84,84,84,84,84,84,84,84,84,84,84,84,80,80,84,84,78,84,84,84,84,84,84,84,84,84,84,84,84,84,84,84,84,84,84,84,84,84,84,84,84,84,
84,84,84,84,84,84,84,84,84,84,84,84,84,84,84,84,84,84,84,84,84,84,84,84,79,84,84,84,84,77,84,84,84,84,84,84,84,84,84,84,84,84,84,84,84,84,84,84,84,84,
84,84,84,84,84,84,84,84,84,84,84,84,84,84,84,84,84,84,84,84,84,84,84,84,78,84,84,84,84,84,84,84,84,84,84,84,84,84,84,84,84,84,84,84,84,84,84,84,84,84,
84,84,84,84,84,84,84,84,84,84,84,84,84,84,84,84,84,84,84,84,84,84,84,84,84,84,84,84,84,76,84,84,84,84,84,84,84,84,84,84,84,84,84,84,84,84,84,84,84,84,
84,84,84,84,84,84,84,84,84,84,84,84,84,84,84,84,84,84,84,84,84,84,81,84,84,84,84,84,84,84,84,84,84,84,84,84,84,84,84,84,84,84,84,84,84,84,84,84,84,84,
84,84,84,84,84,84,84,84,84,84,84,84,84,84,84,84,84,84,84,84,84,84,84,70,84,84,84,84,84,84,84,84,84,84,84,84,84,84,84,84,84,84,84,84,84,84,84,84,84,84,
84,84,84,84,84,84,84,84,84,84,84,84,84,84,84,84,84,84,84,84,84,84,84,51,84,84,84,84,84,84,84,84,84,84,84,84,84,84,84,84,84,84,84,84,84,84,84,84,84,84,
84,84,84,84,84,84,84,84,84,84,84,84,84,84,84,84,84,84,84,84,84,84,84,84,84,84,84,84,84,84,84,84,84,84,84,84,84,84,84,84,84,84,84,84,84,84,84,84,84,84,
84,84,84,84,84,84,84,84,84,84,84,84,84,84,84,84,84,84,84,84,84,84,84,84,84,84,84,84,84,84,84,84,84,84,84,84,84,84,84,84,84,84,84,84,84,84,84,84,84,84,
84,84,84,84,84,84,84,84,84,84,84,84,84,84,84,84,84,84,84,84,84,84,84,84,84,84,84,84,84,84,84,84,84,84,84,84,84,84,84,84,84,84,84,84,84,84,84,84,84,84,
84,84,84,84,84,84,84,84,84,84,84,84,84,84,84,84,84,84,84,84,84,84,84,84,84,84,84,84,84,84,84,84,84,84,84,84,84,84,84,84,84,84,84,84,84,84,84,84,84,84,
84,84,84,84,84,84,84,84,84,84,84,84,84,84,84,84,84,84,84,84,84,84,84,84,84,84,84,84,84,84,84,84,84,84,84,84,84,84,84,84,84,84,84,84,84,84,84,84,84,84,
84,84,84,84,84,84,84,84,84,84,84,84,84,84,84,84,84,84,84,84,84,84,84,84,84,84,84,84,84,84,84,84,84,84,84,84,84,84,84,84,84,84,84,84,84,84,84,84,84,84,
84,84,84,84,84,84,84,84,84,84,84,84,84,84,84,84,84,84,84,84,84,84,84,84,84,84,84,84,84,84,84,84,84,84,84,84,84,84,84,84,84,84,84,84,84,84,84,84,84,84,
84,84,84,84,84,84,84,84,84,84,84,84,84,84,84,84,84,84,84,84,84,84,84,84,84,84,84,84,84,84,84,84,84,84,84,84,84,84,84,84,84,84,84,84,84,84,84,84,84,84,
84,84,84,84,84,84,84,84,84,84,84,84,84,84,84,84,84,84,84,84,84,84,84,84,84,84,84,84,84,84,84,84,84,84,84,84,84,84,84,84,84,84,84,84,84,84,84,84,84,84,
27,27,27,27,27,27,27,27,27,27,27,27,27,27,27,27,27,27,27,27,27,27,27,27,27,27,27,27,27,27,27,27,27,27,27,27,27,27,27,27,27,27,27,27,27,27,27,27,27,27,
27,27,27,27,27,27,27,27,27,27,27,27,27,27,27,27,27,27,27,27,27,27,27,27,27,27,27,27,27,27,27,27,27,27,27,27,27,27,27,27,27,27,27,27,27,27,27,27,27,27,
27,27,27,27,27,27,27,27,27,27,27,27,27,27,27,27,27,27,27,27,27,27,27,27,27,27,27,27,27,27,27,27,27,27,27,27,27,27,27,27,27,27,27,27,27,27,27,27,27,27,
27,27,27,27,27,27,27,27,27,27,27,27,27,27,27,27,27,27,27,27,27,27,27,27,27,27,27,27,27,27,27,27,27,27,27,27,27,27,27,27,27,27,27,27,27,27,27,27,27,27,
27,27,27,27,27,27,27,27,27,27,27,27,27,27,27,27,27,27,27,27,27,27,27,27,27,27,27,27,27,27,27,27,27,27,27,27,27,27,27,27,27,27,27,27,27,27,27,27,27,27,
27,27,27,27,27,27,27,27,27,27,27,27,27,27,27,27,27,27,27,27,27,27,27,27,27,27,27,27,27,27,27,27,27,27,27,27,27,27,27,27,27,27,27,27,27,27,27,27,27,27,
27,27,27,27,27,27,27,27,27,27,27,27,27,27,27,27,27,27,27,27,27,27,27,27,27,27,27,27,27,27,27,27,27,27,27,27,27,27,27,27,27,27,27,27,27,27,27,27,27,27,
26,26,26,26,26,26,26,26,26,26,26,26,26,26,26,26,26,26,26,26,26,26,26,26,26,26,26,26,26,26,26,26,26,26,26,26,26,26,26,26,26,26,26,26,26,26,26,26,26,26,
27,27,27,27,27,27,27,27,27,27,27,27,27,27,27,27,27,27,27,27,27,27,27,27,27,27,27,27,27,27,27,27,27,27,27,27,27,27,27,27,27,27,27,27,27,27,27,27,27,27,
26,26,26,26,26,26,26,26,26,26,26,26,26,26,26,26,26,26,26,26,26,26,26,26,26,26,26,26,26,26,26,26,26,26,26,26,26,26,26,26,26,26,26,26,26,26,26,26,26,26,
27,27,27,27,27,27,27,27,27,27,27,27,27,27,27,27,25,25,25,25,25,25,25,25,84,84,84,84,84,84,84,84,84,84,84,84,84,84,84,84,84,27,27,27,27,27,27,27,27,27,
26,26,26,26,26,26,26,26,26,26,26,26,26,26,26,26,25,25,25,25,50,84,84,84,84,84,84,84,84,84,84,84,84,25,28,29,30,31,84,27,84,26,26,26,26,26,26,26,26,26,
84,84,84,84,84,84,84,84,84,84,84,84,84,84,84,50,84,84,84,25,25,84,84,84,84,84,84,84,84,84,84,84,84,84,32,33,34,35,50,26,84,27,27,27,27,27,27,27,27,27,
84,84,84,84,84,84,84,84,84,84,84,84,84,84,84,25,84,84,84,25,25,84,84,84,84,84,84,84,84,84,84,84,84,50,36,37,38,39,25,25,84,26,26,26,26,26,26,26,26,26,
84,84,84,84,84,84,84,84,84,84,84,84,84,84,84,84,84,84,84,84,84,84,84,84,84,84,84,84,84,84,84,84,84,84,68,67,84,84,25,25,84,27,27,27,27,27,27,27,27,27,
84,84,84,84,84,84,84,84,84,84,84,84,84,84,84,84,84,84,84,84,84,84,84,84,84,84,84,84,84,84,84,84,84,84,68,67,84,84,84,84,84,26,26,26,26,26,26,26,26,26,
84,84,84,84,84,84,84,84,84,84,84,84,84,84,84,84,84,84,84,84,84,84,84,84,84,40,41,42,84,84,84,84,84,84,68,67,84,84,84,84,84,27,27,27,27,27,27,27,27,27,
84,84,84,84,84,84,84,84,84,84,84,84,84,84,84,84,84,84,84,84,84,84,84,84,84,43,44,45,84,84,84,84,84,84,68,67,84,84,84,84,84,26,26,26,26,26,26,26,26,26,
84,84,84,84,84,84,84,84,84,84,84,84,84,84,84,84,84,84,84,84,84,84,84,84,49,46,47,48,50,84,84,84,84,84,68,67,84,84,84,84,84,27,27,27,27,27,27,27,27,27,
84,84,84,84,84,84,84,84,84,84,84,84,84,84,84,84,84,84,84,84,84,84,84,84,84,68,67,84,84,84,84,84,84,84,68,67,84,84,84,84,84,26,26,26,26,26,26,26,26,26,
84,84,84,84,84,84,84,84,84,84,84,84,84,84,84,50,50,84,84,84,84,84,84,84,84,68,62,66,66,66,66,66,66,66,64,67,84,84,84,84,84,27,27,27,27,27,27,27,27,27,
84,84,84,84,84,84,84,84,84,84,84,84,84,84,84,50,50,84,84,84,84,84,84,84,84,58,65,63,61,65,65,65,65,65,65,57,84,25,50,50,84,26,26,26,26,26,26,26,26,26,
84,84,84,84,84,84,84,84,84,84,84,84,84,84,84,84,84,84,84,84,84,84,84,84,84,84,50,68,67,84,84,84,84,84,84,84,84,84,25,50,84,27,27,27,27,27,27,27,27,27,
84,84,84,84,84,84,84,84,84,84,84,84,84,84,84,84,84,84,84,84,84,84,84,84,84,84,84,68,67,84,84,84,84,84,84,84,84,84,84,84,84,26,26,26,26,26,26,26,26,26,
84,84,84,84,84,84,84,84,84,84,84,84,84,84,84,84,84,84,84,84,84,84,84,84,25,84,84,68,67,84,84,84,84,84,84,84,84,84,84,84,84,27,27,27,27,27,27,27,27,27,
84,84,84,84,84,84,84,84,84,84,84,84,84,84,84,84,84,84,84,84,84,84,84,84,84,84,84,68,67,84,84,84,84,84,84,84,84,84,84,84,84,26,26,26,26,26,26,26,26,26,
84,84,84,84,84,84,84,84,84,84,84,84,84,84,84,84,84,84,84,84,84,84,84,84,84,84,84,68,67,84,84,84,84,84,84,84,84,84,84,84,84,27,27,27,27,27,27,27,27,27,
84,84,84,84,84,84,84,84,84,84,84,84,84,84,84,84,84,84,84,84,84,84,84,84,84,84,84,68,67,84,84,84,84,84,84,84,84,84,84,84,25,26,26,26,26,26,26,26,26,26,
84,84,84,84,84,84,84,84,84,84,84,84,84,84,84,84,84,84,84,84,84,84,84,84,84,84,84,68,67,84,84,84,84,84,84,84,84,84,84,25,27,27,27,27,27,27,27,27,27,27,
84,84,84,84,84,84,84,84,84,84,84,84,84,84,84,84,84,84,50,84,84,84,84,84,84,84,84,68,67,84,84,84,84,84,84,84,84,84,84,25,26,26,26,26,26,26,26,26,26,26,
84,84,84,84,84,84,84,84,84,84,84,84,84,84,84,84,84,84,50,50,84,84,84,84,84,84,84,68,67,84,84,84,84,84,84,84,84,84,84,27,27,27,27,27,27,27,27,27,27,27,
84,84,84,84,84,84,84,84,84,84,84,84,84,84,84,84,84,84,50,50,50,84,84,84,84,50,50,68,67,84,84,84,84,84,84,84,84,84,84,26,26,26,26,26,26,26,26,26,26,26,
27,27,27,27,27,27,27,27,27,27,27,27,27,27,27,27,27,27,27,27,27,27,27,27,27,27,27,68,67,27,27,27,27,27,27,27,27,27,27,27,27,27,27,27,27,27,27,27,27,27,
26,26,26,26,26,26,26,26,26,26,26,26,26,26,26,26,26,26,26,26,26,26,26,26,26,26,26,68,67,26,26,26,26,26,26,26,26,26,26,26,26,26,26,26,26,26,26,26,26,26,
27,27,27,27,27,27,27,27,27,27,27,27,27,27,27,27,27,27,27,27,27,27,27,27,27,27,27,68,67,27,27,27,27,27,27,27,27,27,27,27,27,27,27,27,27,27,27,27,27,27,
26,26,26,26,26,26,26,26,26,26,26,26,26,26,26,26,26,26,26,26,26,26,26,26,26,26,26,68,67,26,26,26,26,26,26,26,26,26,26,26,26,26,26,26,26,26,26,26,26,26,
27,27,27,27,27,27,27,27,27,27,27,27,27,27,27,27,27,27,27,27,27,27,27,27,27,27,27,68,67,27,27,27,27,27,27,27,27,27,27,27,27,27,27,27,27,27,27,27,27,27,
26,26,26,26,26,26,26,26,26,26,26,26,26,26,26,26,26,26,26,26,26,26,26,26,26,26,26,68,67,26,26,26,26,26,26,26,26,26,26,26,26,26,26,26,26,26,26,26,26,26,
27,27,27,27,27,27,27,27,27,27,27,27,27,27,27,27,27,27,27,27,27,27,27,27,27,27,27,68,67,27,27,27,27,27,27,27,27,27,27,27,27,27,27,27,27,27,27,27,27,27,
27,27,27,27,27,27,27,27,27,27,27,27,27,27,27,26,26,26,26,26,26,26,26,26,26,26,26,68,67,26,26,26,26,26,26,26,26,26,26,27,27,27,27,27,27,27,27,27,27,27,
27,27,27,27,27,27,27,27,27,27,27,27,27,27,27,27,27,27,27,27,27,27,27,27,27,27,27,68,67,27,27,27,27,27,27,27,27,27,27,27,27,27,27,27,27,27,27,27,27,27,
27,27,27,27,27,27,27,27,27,27,27,27,27,26,26,26,26,26,26,26,26,26,26,26,26,26,26,68,67,26,26,26,26,26,26,26,26,26,26,26,26,27,27,27,27,27,27,27,27,27,
27,27,27,27,27,27,27,27,27,27,27,27,27,27,27,27,27,27,27,27,27,27,27,27,27,27,27,68,67,27,27,27,27,27,27,27,27,27,27,27,27,27,27,27,27,27,27,27,27,27,
27,27,27,27,27,27,27,27,27,27,27,26,26,26,26,26,26,26,26,26,26,26,26,26,26,26,26,68,67,26,26,26,26,26,26,26,26,26,26,26,26,26,26,27,27,27,27,27,27,27,
27,27,27,27,27,27,27,27,27,27,27,27,27,27,27,27,27,27,27,27,27,27,27,27,27,27,27,68,67,27,27,27,27,27,27,27,27,27,27,27,27,27,27,27,27,27,27,27,27,27,
27,27,27,27,27,27,27,26,26,26,26,26,26,26,26,26,26,26,26,26,26,26,26,26,26,26,26,68,67,26,26,26,26,26,26,26,26,26,26,26,26,26,26,26,26,26,27,27,27,27,
27,27,27,27,27,27,27,27,27,27,27,27,27,27,27,25,25,25,25,25,25,25,25,25,25,25,25,68,67,25,25,25,25,25,25,25,25,25,25,27,27,27,27,27,27,27,27,27,27,27,
27,27,27,27,27,27,27,26,26,26,26,26,26,26,26,25,25,25,25,25,25,25,11,11,11,25,25,68,67,11,11,11,11,11,11,11,25,25,25,26,26,26,26,26,26,26,27,27,27,27,
27,27,27,27,27,27,27,27,27,27,27,27,27,27,50,11,11,11,11,11,11,11,11,11,11,11,25,68,67,11,11,11,11,11,11,11,11,25,25,25,27,27,27,27,27,27,27,27,27,27,
27,27,27,27,27,27,27,26,26,26,26,26,26,26,25,25,11,11,11,11,11,11,11,11,11,11,11,68,67,11,11,11,11,11,11,11,11,11,50,50,26,26,26,26,26,26,27,27,27,27,
27,27,27,27,27,27,27,27,27,27,27,27,27,50,50,11,11,11,11,50,11,11,11,11,11,11,11,68,67,11,60,59,11,50,11,25,11,11,50,50,27,27,27,27,27,27,27,27,27,27,
27,27,27,27,27,27,27,26,26,26,26,26,26,50,25,11,11,11,11,11,11,11,11,8,11,11,1,64,62,66,64,62,59,11,11,11,11,11,25,11,26,26,26,26,26,26,27,27,27,27,
27,27,27,27,27,27,27,27,27,27,27,27,27,25,11,11,25,11,11,11,11,11,11,11,11,11,11,68,64,61,63,62,62,59,11,11,11,11,11,11,27,27,27,27,27,27,27,27,27,27,
27,27,27,27,27,27,27,26,26,26,26,26,26,11,11,11,25,11,11,11,11,11,11,11,60,66,66,64,62,62,64,63,67,11,9,11,25,11,11,11,26,26,26,26,26,26,27,27,27,27,
27,27,27,27,27,27,27,27,27,27,27,27,27,11,11,50,50,11,11,11,11,11,11,6,11,68,64,63,63,63,61,63,62,66,5,11,11,11,25,11,27,27,27,27,27,27,27,27,27,27,
27,27,27,27,27,27,27,26,26,26,26,26,26,11,25,50,50,11,11,11,11,11,11,50,11,58,65,63,64,61,62,64,64,67,11,11,11,11,25,11,26,26,26,26,26,26,27,27,27,27,
27,27,27,27,27,27,27,27,27,27,27,27,27,11,11,11,11,11,11,11,11,11,11,11,58,11,50,68,61,63,61,65,63,57,11,11,11,25,11,11,27,27,27,27,27,27,27,27,27,27,
27,27,27,27,27,27,27,26,26,26,26,26,26,50,11,11,11,11,11,11,11,11,11,11,11,58,1,64,62,64,67,11,2,11,9,11,11,11,11,11,26,26,26,26,26,26,27,27,27,27,
27,27,27,27,27,27,27,27,27,27,27,27,27,25,25,25,11,11,11,11,11,11,11,58,11,11,11,58,65,65,57,11,11,11,11,11,11,11,11,11,27,27,27,27,27,27,27,27,27,27,
27,27,27,27,27,27,27,26,26,26,26,26,26,25,25,25,25,11,11,11,11,11,11,11,11,11,11,11,11,11,11,11,11,11,11,11,50,25,25,25,26,26,26,26,26,26,27,27,27,27,
27,27,27,27,27,27,27,27,27,27,27,27,27,27,25,25,25,25,11,50,11,11,11,11,11,11,11,11,11,11,11,11,11,11,11,50,50,25,25,25,27,27,27,27,27,27,27,27,27,27,
27,27,27,27,27,27,27,26,26,26,26,26,26,26,25,25,25,25,25,25,25,11,11,11,50,11,11,11,11,11,11,11,25,25,25,25,25,25,25,25,26,26,26,26,26,26,27,27,27,27,
27,27,27,27,27,27,27,27,27,27,27,27,27,27,27,27,27,27,25,25,25,11,11,11,11,11,11,11,11,11,11,11,25,25,25,25,25,25,27,27,27,27,27,27,27,27,27,27,27,27,
27,27,27,27,27,27,27,26,26,26,26,26,26,26,26,26,26,26,25,25,25,11,11,11,11,11,11,11,11,11,11,11,25,25,25,25,25,25,26,26,26,26,26,26,26,26,27,27,27,27,
27,27,27,27,27,27,27,27,27,27,27,27,27,27,27,27,27,27,27,25,25,25,25,11,11,11,11,11,25,11,11,11,50,25,25,27,27,27,27,27,27,27,27,27,27,27,27,27,27,27,
27,27,27,27,27,27,27,26,26,26,26,26,26,26,26,26,26,26,26,25,25,25,25,25,25,50,11,11,50,50,25,25,25,25,25,26,26,26,26,26,26,26,26,26,26,26,27,27,27,27,
27,27,27,27,27,27,27,27,27,27,27,27,27,27,27,27,27,27,27,27,27,27,27,27,27,27,27,27,27,27,27,27,27,27,27,27,27,27,27,27,27,27,27,27,27,27,27,27,27,27,
27,27,27,27,27,27,27,27,27,26,26,26,26,26,26,26,26,26,26,26,26,26,26,26,26,26,26,26,26,26,26,26,26,26,26,26,26,26,26,26,26,26,26,26,27,27,27,27,27,27,
27,27,27,27,27,27,27,27,27,27,27,27,27,27,27,27,27,27,27,27,27,27,27,27,27,27,27,27,27,27,27,27,27,27,27,27,27,27,27,27,27,27,27,27,27,27,27,27,27,27,
27,27,27,27,27,27,27,27,27,27,26,26,26,26,26,26,26,26,26,26,26,26,26,26,26,26,26,26,26,26,26,26,26,26,26,26,26,26,26,26,26,27,27,27,27,27,27,27,27,27,
27,27,27,27,27,27,27,27,27,27,27,27,27,27,27,27,27,27,27,27,27,27,27,27,27,27,27,27,27,27,27,27,27,27,27,27,27,27,27,27,27,27,27,27,27,27,27,27,27,27,
27,27,27,27,27,27,27,27,27,27,27,27,27,27,27,27,27,27,27,27,27,27,27,27,27,27,27,27,27,27,27,27,27,27,27,27,27,27,27,27,27,27,27,27,27,27,27,27,27,27,
27,27,27,27,27,27,27,27,27,27,27,27,27,27,27,27,27,27,27,27,27,27,27,27,27,27,27,27,27,27,27,27,27,27,27,27,27,27,27,27,27,27,27,27,27,27,27,27,27,27,
27,27,27,27,27,27,27,27,27,27,27,27,27,27,27,27,27,27,27,27,27,27,27,27,27,27,27,27,27,27,27,27,27,27,27,27,27,27,27,27,27,27,27,27,27,27,27,27,27,27,
27,27,27,27,27,27,27,27,27,27,27,27,27,27,27,27,27,27,27,27,27,27,27,27,27,27,27,27,27,27,27,27,27,27,27,27,27,27,27,27,27,27,27,27,27,27,27,27,27,27,
27,27,27,27,27,27,27,27,27,27,27,27,27,27,27,27,27,27,27,27,27,27,27,27,27,27,27,27,27,27,27,27,27,27,27,27,27,27,27,27,27,27,27,27,27,27,27,27,27,27,
27,27,27,27,27,27,27,27,27,27,27,27,27,27,27,27,27,27,27,27,27,27,27,27,27,27,27,27,27,27,27,27,27,27,27,27,27,27,27,27,27,27,27,27,27,27,27,27,27,27,
27,27,27,27,27,27,27,27,27,27,27,27,27,27,27,27,27,27,27,27,27,27,27,27,27,27,27,27,27,27,27,27,27,27,27,27,27,27,27,27,27,27,27,27,27,27,27,27,27,27,
27,27,27,27,27,27,27,27,27,27,27,27,27,27,27,27,27,27,27,27,27,27,27,27,27,27,27,27,27,27,27,27,27,27,27,27,27,27,27,27,27,27,27,27,27,27,27,27,27,27,
27,27,27,27,27,27,27,27,27,27,27,27,27,27,27,27,27,27,27,27,27,27,27,27,27,27,27,27,27,27,27,27,27,27,27,27,27,27,27,27,27,27,27,27,27,27,27,27,27,27,
27,27,27,27,27,27,27,27,27,27,27,27,27,27,27,27,27,27,27,27,27,27,27,27,27,27,27,27,27,27,27,27,27,27,27,27,27,27,27,27,27,27,27,27,27,27,27,27,27,27,
27,27,27,27,27,27,27,27,27,27,27,27,27,27,27,27,27,27,27,27,27,27,27,27,27,27,27,27,27,27,27,27,27,27,27,27,27,27,27,27,27,27,27,27,27,27,27,27,27,27,
27,27,27,27,27,27,27,27,27,27,27,27,27,27,27,27,27,27,27,27,27,27,27,27,27,27,27,27,27,27,27,27,27,27,27,27,27,27,27,27,27,27,27,27,27,27,27,27,27,27,
27,27,27,27,27,27,27,27,27,27,27,27,27,27,27,27,27,27,27,27,27,27,27,27,27,27,27,27,27,27,27,27,27,27,27,27,27,27,27,27,27,27,27,27,27,27,27,27,27,27,
27,27,27,27,27,27,27,27,27,27,27,27,27,27,27,27,27,27,27,27,27,27,27,27,27,27,27,27,27,27,27,27,27,27,27,27,27,27,27,27,27,27,27,27,27,27,27,27,27,27,
27,27,27,27,27,27,27,27,27,27,27,27,27,27,27,27,27,27,27,27,27,27,27,27,27,27,27,27,27,27,27,27,27,27,27,27,27,27,27,27,27,27,27,27,27,27,27,27,27,27,
27,27,27,27,27,27,27,27,27,27,27,27,27,27,27,27,27,27,27,27,27,27,27,27,27,27,27,27,27,27,27,27,27,27,27,27,27,27,27,27,27,27,27,27,27,27,27,27,27,27,
27,27,27,27,27,27,27,27,27,27,27,27,27,27,27,27,27,27,27,27,27,27,27,27,27,27,27,27,27,27,27,27,27,27,27,27,27,27,27,27,27,27,27,27,27,27,27,27,27,27,
27,27,27,27,27,27,27,27,27,27,27,27,27,27,27,27,27,27,27,27,27,27,27,27,27,27,27,27,27,27,27,27,27,27,27,27,27,27,27,27,27,27,27,27,27,27,27,27,27,27,
27,27,27,27,27,27,27,27,27,27,27,27,27,27,27,27,27,27,27,27,27,27,27,27,27,27,27,27,27,27,27,27,27,27,27,27,27,27,27,27,27,27,27,27,27,27,27,27,27,27,
27,27,27,27,27,27,27,27,27,27,27,27,27,27,27,27,27,27,27,27,27,27,27,27,27,27,27,27,27,27,27,27,27,27,27,27,27,27,27,27,27,27,27,27,27,27,27,27,27,27,
27,27,27,27,27,27,27,27,27,27,27,27,27,27,27,27,27,27,27,27,27,27,27,27,27,27,27,27,27,27,27,27,27,27,27,27,27,27,27,27,27,27,27,27,27,27,27,27,27,27,
27,27,27,27,27,27,27,27,27,27,27,27,27,27,27,27,27,27,27,27,27,27,27,27,27,27,27,27,27,27,27,27,27,27,27,27,27,27,27,27,27,27,27,27,27,27,27,27,27,27,
27,27,27,27,27,27,27,27,27,27,27,27,27,27,27,27,27,27,27,27,27,27,27,27,27,27,27,27,27,27,27,27,27,27,27,27,27,27,27,27,27,27,27,27,27,27,27,27,27,27,
27,27,27,27,27,27,27,27,27,27,27,27,27,27,27,27,27,27,27,27,27,27,27,27,27,27,27,27,27,27,27,27,27,27,27,27,27,27,27,27,27,27,27,27,27,27,27,27,27,27,
27,27,27,27,27,27,27,27,27,27,27,27,27,27,27,27,27,27,27,27,27,27,27,27,27,27,27,27,27,27,27,27,27,27,27,27,27,27,27,27,27,27,27,27,27,27,27,27,27,27,
27,27,27,27,27,27,27,27,27,27,27,27,27,27,27,27,27,27,27,27,27,27,27,27,27,27,27,27,27,27,27,27,27,27,27,27,27,27,27,27,27,27,27,27,27,27,27,27,27,27,
27,27,27,27,27,27,27,27,27,27,27,27,27,27,27,27,27,27,27,27,27,27,27,27,27,27,27,27,27,27,27,27,27,27,27,27,27,27,27,27,27,27,27,27,27,27,27,27,27,27,
27,27,27,27,27,27,27,27,27,27,27,27,27,27,27,27,27,27,27,27,27,27,27,27,27,27,27,27,27,27,27,27,27,27,27,27,27,27,27,27,27,27,27,27,27,27,27,27,27,27,
27,27,27,27,27,27,27,27,27,27,27,27,27,27,27,27,27,27,27,27,27,27,27,27,27,27,27,27,27,27,27,27,27,27,27,27,27,27,27,27,27,27,27,27,27,27,27,27,27,27
</data>
 </layer>
</map>
